static/img-预备/misc/Esclapius_stick.svg

<svg xmlns="http://www.w3.org/2000/svg" width="94" height="405" version="1.0"><path d="M37.23 54.95c1.2 8.47 2.15 17.15 1.77 25.67 4.74 4.095 10.945 8.338 17.725 13.032.616.427 1.241.868 1.865 1.308.16-1.148.281-2.304.488-3.444 1.402-7.725 2.275-14.791 2.437-22.219-9.083-1.275-14.821-17.105-24.286-14.343zm23.683-23.362c.88-6.702 5.53-14.337 3.657-21.1-3.503-4.911-8.665.945-12.161 0-6.894-1.861-5.099-6.276-12.553-7.453-6.443-1.017-8.237-1.57-6.669 13.337.47 4.471.796 8.751 1.124 12.995 3.781-1.245 7.472-1.797 10.645-1.618 6.294.355 11.54 1.805 15.957 3.839M42.441 351.399c-11.827 8.896-25.65 14.272-39.852 18.027 17.571-2.243 30.382-7.072 39.913-12.191-.002-1.931-.036-3.887-.061-5.836m.06 5.836c.017 13.842-.574 27.266-2.254 40.043 13.73-12.945 14.515-16.866 12.947-39.62a168 168 0 0 1-.322-6.843 157 157 0 0 1-.012-8.38c.242-9.96 1.421-19.552 3.471-29.891 1.297-6.532 1.373-14.223 1.102-22.047-5.284-3.832-11.729-7.066-18.092-10.564.496 10.918 1.08 21.935 1.691 33.397.688 12.909 1.247 25.636 1.408 38.068.026 1.95.06 3.906.061 5.837m-4.616-134.749c0 .076.009.149.009.228 0 11.84.208 23.169.557 34.356 4.136 3.824 9.701 7.845 16.312 12.718.574.423 1.156.869 1.735 1.314-.095-2.345-.166-4.639-.166-6.808 0-8.97.042-14.154 2.94-21.6 1.71-4.395 9.222-14.097-.234-15.961-1.069 1.776-2.961 2.561-3.919 4.354-2.027-7.401 1.068-17.441.43-25.243q-.137-1.662-.27-3.283c-.639-7.897-1.084-15.147.221-23.054.019-.114.03-.225.049-.338 1.271-7.423 3.53-13.338 2.763-22.36-.262-3.08 3.121-5.491 2.729-9.807-.499-5.47-4.314 0-3.567-9.807.219-2.864 1.761-6.366 1.781-9.415.014-1.928-.271-3.888-.574-5.846-5.105-4.884-10.939-8.273-15.293-11.023a83 83 0 0 1-4.973-3.437c1.098 23.041 4.959 46.592.266 47.765-3.7-.693-3.157-5.755-7.061-7.061-9.023 2.745-6.871 6.518-4.316 12.945 2.313 5.822.785 10.592 4.318 16.867 2.521 4.478 5.488 10.2 4.305 19.676-.026.212-.022.423-.043.635-.785 7.84 1.951 15.634 2.001 24.185m20.794-100.551c6.235 5.967 11.382 14.168 11.382 26.244 0 15.699-6.42 23.771-14.562 31.328-1.305 7.906-.859 15.156-.221 23.054 3.648-3.492 7.158-6.635 10.075-9.27 12.161-10.983 24.387-28.637 24.714-49.428.377-24.097-16.575-38.44-31.477-48.903-.625-.439-1.25-.882-1.866-1.309-6.78-4.693-12.984-8.937-17.716-13.034-5.152-4.461-8.552-8.75-8.961-13.25-.46-5.046 2.194-10.68 7.181-12.414a9.7 9.7 0 0 1 2.627-.531c4.171-.246 12.045 11.486 21.659 14.873 2.117.746 4.319 1.103 6.585.819 4.282-.536 4.43-.796 4.43-7.464 4.314.392 7.7 4.555 8.123-6.266.239-6.12-4.611-17.83-19.74-24.796-4.417-2.034-9.663-3.485-15.957-3.84-3.173-.179-6.863.374-10.645 1.618C22.218 33.347 9.164 44.62 8.865 63.446 8.614 79.192 24.419 97.1 38.414 107.475a82 82 0 0 0 4.973 3.437c4.353 2.75 10.187 6.139 15.292 11.023m-1.246 168.563c23.136 15.699 9.036 36.493-4.572 51.937-.066 2.756-.071 5.542.012 8.38 4.744-3.364 8.25-6.427 10.914-8.456 8.237-6.277 21.476-20.58 19.613-33.735-2.841-20.193-15.49-28.96-28.637-38.835-6.61-4.873-12.176-8.894-16.312-12.718-5.189-4.8-8.125-9.286-8.01-14.743.141-6.615 3.134-13.377 7.444-19.841-.05-8.551-2.786-16.345-2.003-24.184-13.072 13.969-24.039 28.983-23.487 47.556.538 18.094 13.521 26.692 26.946 34.075 6.363 3.497 12.808 6.732 18.092 10.564" style="fill:none;stroke:#000;stroke-width:5;stroke-linecap:round;stroke-linejoin:round"/><ellipse cx="63" cy="45" rx="4.12" ry="4.35"/></svg>

<?xml version="1.0" encoding="UTF-8" standalone="no"?>
<svg xmlns:svg="http://www.w3.org/2000/svg" xmlns="http://www.w3.org/2000/svg" version="1.0"
width="94" height="405" id="staff">
<path d="M 37.23,54.95 C 38.43,63.42 39.38,72.1 39,80.62
C 43.74,84.715 49.945,88.958 56.725,93.652 C 57.341,94.079 57.966,94.52 58.59,94.96
C 58.75,93.812 58.871,92.656 59.078,91.516 C 60.48,83.791 61.353,76.725 61.515,69.297
C 52.431921,68.021891 46.69387,52.191751 37.229,54.954 z M 60.913,31.588
C 61.792393,24.885698 66.443381,17.251411 64.57,10.488 C 61.067,5.577 55.905,11.433 52.409,10.488
C 45.515,8.627 47.31,4.212 39.856,3.035 C 33.413,2.018 31.619,1.465 33.187,16.372
C 33.657,20.843 33.983,25.123 34.311,29.367 C 38.092,28.122 41.783,27.57 44.956,27.749
C 51.25,28.104 56.496,29.554 60.913,31.588 z M 42.441,351.399
C 30.614053,360.29469 16.790914,365.67108 2.589,369.426
C 20.16,367.183 32.971,362.354 42.502,357.235 C 42.5,355.304 42.466,353.348 42.441,351.399 z
M 42.501,357.235 C 42.518,371.077 41.927,384.501 40.247,397.278
C 53.977,384.333 54.762,380.412 53.194,357.658 C 53.033,355.332 52.936,353.061 52.872,350.815
C 52.789,347.977 52.794,345.191 52.86,342.435 C 53.102,332.475 54.281,322.883 56.331,312.544
C 57.628,306.012 57.704,298.321 57.433,290.497 C 52.149,286.665 45.704,283.431 39.341,279.933
C 39.837,290.851 40.421,301.868 41.032,313.33 C 41.72,326.239 42.279,338.966 42.44,351.398
C 42.466,353.348 42.5,355.304 42.501,357.235 z M 37.885,222.486
C 37.885,222.562 37.894,222.635 37.894,222.714 C 37.894,234.554 38.102,245.883 38.451,257.07
C 42.587,260.894 48.152,264.915 54.763,269.788 C 55.337,270.211 55.919,270.657 56.498,271.102 C 56.403,268.757 56.332,266.463 56.332,264.294 C 56.332,255.324 56.374,250.14 59.272,242.694 C 60.982,238.299 68.494,228.597 59.038,226.733 C 57.969,228.509 56.077,229.294 55.119,231.087 C 53.092,223.686 56.187,213.646 55.549,205.844 C 55.459,204.735 55.367,203.643 55.279,202.561 C 54.64,194.664 54.195,187.414 55.5,179.507 C 55.519,179.393 55.53,179.282 55.549,179.169 C 56.82,171.746 59.079,165.831 58.312,156.809 C 58.05,153.729 61.433,151.318 61.041,147.002 C 60.542,141.532 56.727,147.002 57.474,137.195 C 57.693,134.331 59.235,130.829 59.255,127.78 C 59.269,125.852 58.984,123.892 58.681,121.934 C 53.576,117.05 47.742,113.661 43.388,110.911 C 41.781,109.895 40.109,108.729 38.415,107.474 C 39.513,130.515 43.374,154.066 38.681,155.239 C 34.981,154.546 35.524,149.484 31.62,148.178 C 22.597,150.923 24.749,154.696 27.304,161.123 C 29.617,166.945 28.089,171.715 31.622,177.99 C 34.143,182.468 37.11,188.19 35.927,197.666 C 35.901,197.878 35.905,198.089 35.884,198.301 C 35.099,206.141 37.835,213.935 37.885,222.486 z M 58.679,121.935 C 64.914,127.902 70.061,136.103 70.061,148.179 C 70.061,163.878 63.641,171.95 55.499,179.507 C 54.194,187.413 54.64,194.663 55.278,202.561 C 58.926,199.069 62.436,195.926 65.353,193.291 C 77.514,182.308 89.74,164.654 90.067,143.863 C 90.444,119.766 73.492,105.423 58.59,94.96 C 57.965,94.521 57.34,94.078 56.724,93.651 C 49.944,88.958 43.74,84.714 39.008,80.617 C 33.856,76.156 30.456,71.867 30.047,67.367 C 29.587,62.321 32.241,56.687 37.228,54.953 C 38.043,54.669 38.916,54.477 39.855,54.422 C 44.026,54.176 51.9,65.908 61.514,69.295 C 63.631,70.041 65.833,70.398 68.099,70.114 C 72.381,69.578 72.528581,69.318149 72.528581,62.650149 C 76.842581,63.042149 80.229,67.205 80.652,56.384 C 80.891,50.264 76.041,38.554 60.912,31.588 C 56.495,29.554 51.249,28.103 44.955,27.748 C 41.782,27.569 38.092,28.122 34.31,29.366 C 22.218,33.347 9.164,44.62 8.865,63.446 C 8.614,79.192 24.419,97.1 38.414,107.475 C 40.107,108.73 41.779,109.896 43.387,110.912 C 47.74,113.662 53.574,117.051 58.679,121.935 z M 57.433,290.498 C 80.56918,306.19654 66.469377,326.99069 52.861,342.435 C 52.795,345.191 52.79,347.977 52.873,350.815 C 57.617,347.451 61.123,344.388 63.787,342.359 C 72.024,336.082 85.263142,321.77861 83.4,308.624 C 80.55895,288.43064 67.910084,279.66411 54.763,269.789 C 48.153,264.916 42.587,260.895 38.451,257.071 C 33.262,252.271 30.326,247.785 30.441,242.328 C 30.582,235.713 33.575,228.951 37.885,222.487 C 37.835,213.936 35.099,206.142 35.882,198.303 C 22.81,212.272 11.843,227.286 12.395,245.859
C 12.933,263.953 25.916,272.551 39.341,279.934 C 45.704,283.431 52.149,286.666 57.433,290.498 z"
style="fill:none;stroke:black;stroke-width:5;stroke-linecap:round;stroke-linejoin:round" id="trace"/>
<ellipse cx="63" cy="45" rx="4.12" ry="4.35" id="eye"/></svg>
